img/github.svg

<svg width="24" height="24" viewBox="0 0 24 24" fill="none" xmlns="http://www.w3.org/2000/svg">
<path d="M22.3901 6.26997C21.3171 4.43139 19.8615 2.97579 18.0231 1.90284C16.1844 0.829826 14.1771 0.293457 11.9998 0.293457C9.82276 0.293457 7.81481 0.82999 5.97651 1.90284C4.13794 2.97574 2.68245 4.43139 1.60938 6.26997C0.536478 8.10848 0 10.1162 0 12.2929C0 14.9077 0.762879 17.259 2.28902 19.3474C3.815 21.436 5.78634 22.8812 8.20287 23.6832C8.48416 23.7354 8.69239 23.6987 8.82778 23.574C8.96323 23.4491 9.03087 23.2927 9.03087 23.1054C9.03087 23.0742 9.02819 22.793 9.02299 22.2617C9.01763 21.7304 9.01511 21.2668 9.01511 20.8713L8.65573 20.9335C8.42659 20.9755 8.13753 20.9933 7.78854 20.9882C7.43972 20.9834 7.07759 20.9468 6.70267 20.8788C6.32758 20.8115 5.9787 20.6552 5.65576 20.4104C5.33299 20.1656 5.10385 19.8452 4.9684 19.4497L4.81216 19.0901C4.70802 18.8507 4.54406 18.5848 4.32006 18.2934C4.09607 18.0016 3.86956 17.8038 3.64042 17.6997L3.53103 17.6214C3.45813 17.5693 3.39049 17.5066 3.32794 17.4337C3.26544 17.3609 3.21865 17.288 3.1874 17.215C3.1561 17.1419 3.18204 17.082 3.2655 17.035C3.34895 16.988 3.49978 16.9652 3.71863 16.9652L4.031 17.0118C4.23934 17.0536 4.49705 17.1783 4.80444 17.3868C5.11167 17.5951 5.36423 17.8658 5.56218 18.199C5.80188 18.6262 6.09067 18.9517 6.42937 19.1757C6.76779 19.3997 7.10901 19.5115 7.45269 19.5115C7.79636 19.5115 8.0932 19.4855 8.34329 19.4336C8.59312 19.3815 8.82751 19.3032 9.04636 19.1991C9.1401 18.5009 9.39535 17.9646 9.81187 17.5896C9.2182 17.5273 8.68446 17.4333 8.21037 17.3083C7.73655 17.1832 7.24692 16.9802 6.7418 16.6987C6.2364 16.4176 5.81715 16.0685 5.48392 15.652C5.15064 15.2353 4.87712 14.6883 4.66374 14.0114C4.45026 13.3342 4.34349 12.553 4.34349 11.6677C4.34349 10.4071 4.75503 9.33434 5.57794 8.44888C5.19245 7.50113 5.22884 6.43869 5.68723 5.26164C5.98931 5.16779 6.4373 5.23822 7.03097 5.4725C7.62474 5.70689 8.05949 5.90768 8.33563 6.07416C8.61178 6.24058 8.83304 6.38161 8.99973 6.49598C9.96866 6.22525 10.9686 6.08986 11.9997 6.08986C13.0308 6.08986 14.031 6.22525 14.9999 6.49598L15.5937 6.12117C15.9997 5.87107 16.4791 5.64188 17.0309 5.43353C17.5829 5.2253 18.0051 5.16795 18.2969 5.2618C18.7655 6.4389 18.8072 7.5013 18.4216 8.44904C19.2445 9.33451 19.6562 10.4075 19.6562 11.6679C19.6562 12.5532 19.549 13.3368 19.3359 14.0192C19.1224 14.7017 18.8466 15.2482 18.5081 15.6598C18.1693 16.0714 17.7474 16.4178 17.2423 16.6989C16.737 16.9802 16.2473 17.1832 15.7734 17.3083C15.2994 17.4334 14.7657 17.5274 14.172 17.5899C14.7134 18.0585 14.9842 18.7981 14.9842 19.8084V23.105C14.9842 23.2922 15.0494 23.4486 15.1797 23.5735C15.3099 23.6983 15.5155 23.735 15.7968 23.6827C18.2137 22.8808 20.185 21.4356 21.7109 19.347C23.2367 17.2586 23.9998 14.9073 23.9998 12.2925C23.9993 10.116 23.4625 8.10848 22.3901 6.26997Z" fill="#848E9C"/>
</svg>

<svg width="24" height="24" fill="none" xmlns="http://www.w3.org/2000/svg"><path d="M22.39 6.27a11.947 11.947 0 0 0-4.367-4.367C16.184.83 14.177.293 12 .293c-2.177 0-4.185.537-6.023 1.61A11.946 11.946 0 0 0 1.609 6.27C.536 8.108 0 10.116 0 12.293c0 2.615.763 4.966 2.289 7.054 1.526 2.089 3.497 3.534 5.914 4.336.281.052.49.016.625-.109a.611.611 0 0 0 .203-.469l-.008-.843c-.005-.532-.008-.995-.008-1.39l-.36.061c-.228.043-.517.06-.866.055a6.596 6.596 0 0 1-1.086-.11 2.426 2.426 0 0 1-1.047-.468 1.983 1.983 0 0 1-.688-.96l-.156-.36a3.901 3.901 0 0 0-.492-.797c-.224-.291-.45-.49-.68-.593l-.109-.079a1.147 1.147 0 0 1-.203-.187.856.856 0 0 1-.14-.219c-.032-.073-.006-.133.077-.18.084-.047.235-.07.454-.07l.312.047c.208.042.466.166.773.375.308.208.56.479.758.812.24.427.529.753.867.977.339.224.68.336 1.024.336.343 0 .64-.027.89-.078.25-.053.485-.13.703-.235.094-.698.35-1.234.766-1.61a10.68 10.68 0 0 1-1.602-.28 6.377 6.377 0 0 1-1.468-.61 4.205 4.205 0 0 1-1.258-1.047c-.333-.417-.607-.964-.82-1.64-.214-.678-.32-1.459-.32-2.344 0-1.26.411-2.334 1.234-3.22-.386-.947-.35-2.01.11-3.186.301-.094.75-.024 1.343.21.594.235 1.028.436 1.305.602.276.167.497.308.664.422.969-.27 1.969-.406 3-.406 1.03 0 2.031.135 3 .406l.594-.375c.406-.25.885-.48 1.437-.687.552-.209.974-.266 1.266-.172.468 1.177.51 2.24.125 3.187.822.886 1.234 1.959 1.234 3.219 0 .885-.107 1.669-.32 2.351-.214.683-.49 1.23-.828 1.64-.339.412-.76.759-1.266 1.04a6.388 6.388 0 0 1-1.469.61c-.474.124-1.007.218-1.601.28.541.47.812 1.21.812 2.22v3.296c0 .187.065.344.196.468.13.125.335.162.617.11 2.417-.802 4.388-2.247 5.914-4.336C23.237 17.259 24 14.907 24 12.292c0-2.176-.538-4.184-1.61-6.022z" fill="#848E9C"/></svg>
